www/assets/icons/local_grocery_store.svg

<svg xmlns="http://www.w3.org/2000/svg" width="24" height="24" viewBox="0 0 24 24" fill='currentColor'><path d="M8 18c-1.1 0-1.99.9-1.99 2S6.9 22 8 22s2-.9 2-2-.9-2-2-2M2 2v2h2l3.6 7.59-1.35 2.45c-.16.28-.25.61-.25.96 0 1.1.9 2 2 2h12v-2H8.42c-.14 0-.25-.11-.25-.25l.03-.12.9-1.63h7.45c.75 0 1.41-.41 1.75-1.03l3.58-6.49A1.003 1.003 0 0 0 21 4H6.21l-.94-2zm16 16c-1.1 0-1.99.9-1.99 2s.89 2 1.99 2 2-.9 2-2-.9-2-2-2"/></svg>

<svg width="24" height="24" viewBox="0 0 24 24" xmlns="http://www.w3.org/2000/svg" fill='currentColor'><path d="M8 18C6.9 18 6.01 18.9 6.01 20C6.01 21.1 6.9 22 8 22C9.1 22 10 21.1 10 20C10 18.9 9.1 18 8 18ZM2 2V4H4L7.6 11.59L6.25 14.04C6.09 14.32 6 14.65 6 15C6 16.1 6.9 17 8 17H20V15H8.42C8.28 15 8.17 14.89 8.17 14.75L8.2 14.63L9.1 13H16.55C17.3 13 17.96 12.59 18.3 11.97L21.88 5.48C21.96 5.34 22 5.17 22 5C22 4.45 21.55 4 21 4H6.21L5.27 2H2ZM18 18C16.9 18 16.01 18.9 16.01 20C16.01 21.1 16.9 22 18 22C19.1 22 20 21.1 20 20C20 18.9 19.1 18 18 18Z"/></svg>
